X:246
T:Peter Street (reel) 
B:CRE2.169 (SrÃÂÃÂÃÂÃÂ¡id Pheadair)
F:file ID: cre.2/246peter_s
N:Also often heard in A - version in that key appended.
M:C
R:reel %A-B-A
Q:180
K:G
G2BG dGBG|dgg2 efge|dGG2 dGBG|ADBD cDAD|
G2BG dGBG|dgg2 efge|dBde g2ge|1 dcBA G2G2:|\
[2 dcBA G3||
A|:D2FD ADFD|ADBD cdAD|G2BG dgBG|dgg2 efge|
dBde g2ge|dcde g2gd|edgd edcB|1 AGFE DEFE:|\
[2 AGFE DcBA||

%%%

